X:1
T:B318B- Piss upon the Grass [Later Nancy Dawson]
S:Walsh's Caledonian Country Dances, bk. 3, c 1740
Q:1/4=120
L:1/8
M:6/8
K:G
G2G G3/2A/2B/2c/2|d2BG2B|A2BA2B|A2B AFD|
G2G G3/2A/2B/2c/2|d2BG2B|A2GF2E|(D3D3)||
A2BA2B|A2B AFD|B2cd2e|d2e dBG|d2Bc2d|
e2f gfe|dcB AGF|(G3G3)|]
